MA5T1/108/aimg/cafe.svg

<svg clip-rule="evenodd" fill-rule="evenodd" stroke-linejoin="round" stroke-miterlimit="2" viewBox="0 0 237 296" xmlns="http://www.w3.org/2000/svg"><path d="m353.159 462.369h14.173v14.173h-14.173zm-14.173 14.174h14.173v14.173h-14.173zm14.173 0h14.173v14.173h-14.173zm-14.173 14.173h14.173v14.173h-14.173zm-28.347 14.173h14.173v14.173h-14.173zm14.174 0h14.173v14.173h-14.173zm14.173 0h14.173v14.173h-14.173zm-28.347 14.173h14.173v14.173h-14.173z" fill="#c0b191" fill-rule="nonzero" transform="matrix(4.16667 0 0 4.16667 -1294.3 -1926.5457675)"/></svg>

<?xml version="1.0" encoding="UTF-8" standalone="no"?>
<!DOCTYPE svg PUBLIC "-//W3C//DTD SVG 1.1//EN" "http://www.w3.org/Graphics/SVG/1.1/DTD/svg11.dtd">
<svg width="100%" height="100%" viewBox="0 0 237 296" version="1.1" xmlns="http://www.w3.org/2000/svg" xmlns:xlink="http://www.w3.org/1999/xlink" xml:space="preserve" xmlns:serif="http://www.serif.com/" style="fill-rule:evenodd;clip-rule:evenodd;stroke-linejoin:round;stroke-miterlimit:2;">
    <g transform="matrix(1,0,0,1,-14913.9,-8142.36)">
        <g transform="matrix(4.16667,0,0,4.16667,13619.6,7175.19)">
            <g transform="matrix(1,0,0,1,0,-230.25)">
                <path d="M353.159,462.369L367.332,462.369L367.332,476.542L353.159,476.542L353.159,462.369ZM338.986,476.543L353.159,476.543L353.159,490.716L338.986,490.716L338.986,476.543ZM353.159,476.543L367.332,476.543L367.332,490.716L353.159,490.716L353.159,476.543ZM338.986,490.716L353.159,490.716L353.159,504.889L338.986,504.889L338.986,490.716ZM310.639,504.889L324.812,504.889L324.812,519.062L310.639,519.062L310.639,504.889ZM324.813,504.889L338.986,504.889L338.986,519.062L324.813,519.062L324.813,504.889ZM338.986,504.889L353.159,504.889L353.159,519.062L338.986,519.062L338.986,504.889ZM310.639,519.062L324.812,519.062L324.812,533.235L310.639,533.235L310.639,519.062Z" style="fill:rgb(192,177,145);fill-rule:nonzero;"/>
            </g>
        </g>
    </g>
</svg>
